projects/elonkit/src/assets/elonkit/empty-state/box.svg

<svg width="56" height="56" viewBox="0 0 56 56" fill="none" xmlns="http://www.w3.org/2000/svg">
  <path fill-rule="evenodd" clip-rule="evenodd"
    d="M52.6003 46.4C52.4003 48.4 50.7003 50 48.6003 50H7.40033C5.30033 50 3.60033 48.5 3.40033 46.4L3.3584 46H44.6118C46.5672 46 48.2359 44.5863 48.5574 42.6576L50.0003 34H54.0003L52.6003 46.4Z"
    data-mono-a="A50" />
  <path fill-rule="evenodd" clip-rule="evenodd"
    d="M29 1C29 0.447715 28.5523 0 28 0C27.4477 0 27 0.447715 27 1V8C27 8.55228 27.4477 9 28 9C28.5523 9 29 8.55228 29 8V1ZM14.9358 3.95905C14.5127 3.60405 13.8819 3.65924 13.5269 4.08231C13.1719 4.50538 13.2271 5.13614 13.6502 5.49114L19.0125 9.99066C19.4356 10.3457 20.0663 10.2905 20.4213 9.8674C20.7764 9.44432 20.7212 8.81357 20.2981 8.45857L14.9358 3.95905ZM42.4731 4.08231C42.1181 3.65924 41.4873 3.60405 41.0643 3.95905L35.702 8.45857C35.2789 8.81357 35.2237 9.44432 35.5787 9.8674C35.9337 10.2905 36.5645 10.3457 36.9875 9.99066L42.3498 5.49114C42.7729 5.13614 42.8281 4.50538 42.4731 4.08231ZM43.9 15C45.8 15 47.5 16.1 48.4 17.8L56 33L55.9 34L54.6 46.6C54.2 49.7 51.7 52 48.6 52H7.4C4.3 52 1.7 49.6 1.4 46.6L0.1 34L0 33L7.6 17.8C8.5 16.1 10.2 15 12.1 15H43.9ZM12.1 17C11 17 9.9 17.6 9.4 18.7L2.7 32H15C17.3 32 19.3 33.6 19.8 35.8C20.4 38.2 22.6 40 25.2 40H30.9C33.4 40 35.7 38.3 36.3 35.8C36.8 33.5 38.8 32 41.1 32H53.3L46.6 18.7C46.1 17.6 45 17 43.9 17H12.1ZM48.6 50C50.7 50 52.4 48.4 52.6 46.4L54 34H41.2C39.8 34 38.6 34.9 38.3 36.2C37.4 39.6 34.4 42 30.9 42H25.2C21.7 42 18.6 39.6 17.8 36.2C17.4 34.9 16.3 34 14.9 34H2.1L3.4 46.4C3.6 48.5 5.3 50 7.4 50H48.6Z"
    data-mono-a="A400" />
</svg>

<svg width="56" height="56" fill="none" xmlns="http://www.w3.org/2000/svg"><path fill-rule="evenodd" clip-rule="evenodd" d="M52.6 46.4c-.2 2-1.9 3.6-4 3.6H7.4c-2.1 0-3.8-1.5-4-3.6l-.042-.4h41.254a4 4 0 003.945-3.342L50 34h4l-1.4 12.4z" fill="#000" fill-opacity=".04"/><path fill-rule="evenodd" clip-rule="evenodd" d="M29 1a1 1 0 10-2 0v7a1 1 0 102 0V1zM14.936 3.959a1 1 0 00-1.286 1.532l5.362 4.5a1 1 0 101.286-1.532l-5.362-4.5zm27.537.123a1 1 0 00-1.409-.123l-5.362 4.5a1 1 0 101.285 1.532l5.363-4.5a1 1 0 00.123-1.409zM43.9 15c1.9 0 3.6 1.1 4.5 2.8L56 33l-.1 1-1.3 12.6c-.4 3.1-2.9 5.4-6 5.4H7.4c-3.1 0-5.7-2.4-6-5.4L.1 34 0 33l7.6-15.2c.9-1.7 2.6-2.8 4.5-2.8h31.8zm-31.8 2c-1.1 0-2.2.6-2.7 1.7L2.7 32H15c2.3 0 4.3 1.6 4.8 3.8.6 2.4 2.8 4.2 5.4 4.2h5.7c2.5 0 4.8-1.7 5.4-4.2.5-2.3 2.5-3.8 4.8-3.8h12.2l-6.7-13.3c-.5-1.1-1.6-1.7-2.7-1.7H12.1zm36.5 33c2.1 0 3.8-1.6 4-3.6L54 34H41.2c-1.4 0-2.6.9-2.9 2.2-.9 3.4-3.9 5.8-7.4 5.8h-5.7c-3.5 0-6.6-2.4-7.4-5.8-.4-1.3-1.5-2.2-2.9-2.2H2.1l1.3 12.4c.2 2.1 1.9 3.6 4 3.6h41.2z" fill="#000" fill-opacity=".22"/></svg>
